!! 00008] TT[TB
!! Eigene Aufnahme
!!!OTL: Xiu zhen tou
!!!ARE: Neimeng Xilingele
!! Ethnic Group: Menggu
!! IV, 365
!!!SCT: C0190
!!!YEM: Copyright 1995, estate of Helmut Schaffrath.
**kern
*ICvox
*Ivox
*M2/4
*k[b-]
*F:
{4cc
8.ff
16dd
=1
8ff
8cc
16cc
16dd
16a
16g
=2
8f
16g
16a
8g
8c
=3
4f
16g
16a
16g
16f
=4
2cc}
=5
{8a
16cc
16dd
8.ff
16dd
=6
8ff
8cc
16cc
16dd
16a
16g
=7
16f
16d
4f
8g
=8
8cc
16dd
16ff
16dd
16cc
8a
=9
2g}
=10
{8.g
16cc
8g
16a
16cc
=11
8.cc
16ff
8dd
8ff
=12
8f
16g
16a
16g
16f
8d
=13
8.c
16c
16d
16f
16g
16a
=14
8.g
16a
16g
16a
8cc}
=15
{8d
16d
16f
8.g
16a
=16
16g
16a
4cc
8cc
=17
16c
16a
4c
8a
=18
8.g
16f
16f
16g
8d
=19
2c}
==
!!!AGN: Mijian yishu gequ. Tuowu jiqing
!! Hat auch Han-Stil. Saenger: Chao Lun Batou
!!!ONB: ESAC (Essen Associative Code) Database: CHINA
!!!AMT: simple duple
!!!AIN: vox
!!!EED: Helmut Schaffrath
!!!EEV: 1.0
*-
